X:1
T: Jimmy MacKinnon of Smelt Brook
C:Winston Fitzgerald
R:Jig
Q:180
K:G
M:6/8
L:1/16
|:c2|B2A2G2 B2d2g2|e2c2c2 e2f2g2|d2B2G2 d2B2G2|A2F2G2 A2B2c2|
B2A2G2 B2d2g2|e2c2c2 e2f2g2|d2B2G2 c2A2F2|A2G2G2 G4:|
|:g2|b2g2b2 a2f2a2|g2f2e2 d2B2G2|A2c2e2 a2b2a2|g2f2e2 d4g2|
b2g2b2 a2f2a2|g2f2e2 d2B2G2|1c2B2c2 A2a2f2|g6g4a2:|2c2B2c2 a2f2d2|g6g4||
